!! 00000] TT[00
!! NN
!!!OTL: Maonan gen dang zou
!!!ARE: Guangxi, Huanjiang
!! Ethnic Group: Maonan
!! II, 449
!!!SCT: C0255
!!!YEM: Copyright 1995, estate of Helmut Schaffrath.
**kern
*ICvox
*Ivox
!! Mixed meters:  2/4; 3/4
*MZ
*k[f#c#g#]
*A:
{16ee
16ee
16ee
16ee
16ff#
16ff#
16ff#
16ee
=1
8cc#
16cc#
16b
8b
8f#
=2
8a
16a
16b}
{8ee
16cc#
16ee
=3
8cc#
16a
16b
8cc#
8r
=4
8b
8f#
8a
8f#}
=5
{8a
8a
8a
8a
=6
8b
16a
16f#
8a
16a
16f#
=7
8a
[8a
2a]
=8
*M2/4
[2f#
=9
2f#]}
=10
{16ee
16ee
16b
16cc#
16b
16cc#
16ee
16cc#
=11
8b
16a
16f#
8a
16f#
16b
=12
8cc#
16cc#
16b
8f#
8r}
=13
*M3/4
{8b
8b
8b
16a
16b
8b
16a
16b
=14
*M2/4
8a
8a
8f#
8r}
=15
{8b
16a
16b
8f#
16a
16b
=16
8a
8a
4a
=17
4.a
8f#
=18
2a
=19
2a}
=20
{16ee
16ee
16ee
16ee
16cc#
16b
16ee
16cc#
=21
16b
16b
16a
16f#
16a
16a
16a
16b
=22
8ee
16cc#
16cc#
16b
16f#
16a
16b
=23
8cc#
16cc#
16b
8a
16a
16b
=24
8b
8r}
{8a
8f#
=25
*M3/4
8a
8f#
8b
8f#
8a
8f#
=26
8f#
[8a
2a]
=27
*M2/4
[2f#
=28
2f#]}
=29
{16ee
16ee
16cc#
16b
16cc#
16b
16ee
16cc#
=30
8a
8a
8a
16a
16b
=31
8cc#
16cc#
16b
8f#
16cc#
16b
=32
8cc#
8cc#
8b
16a
16b}
=33
*M3/4
{8b
8cc#
8a
8a
8a
8r
=34
*M2/4
8a
16a
16f#
8a
16a
16b
=35
*M3/4
8b
4.a
4r
=36
*M2/4
[2f#
=37
2f#]}
=38
{8f#
8f#
8f#
8a
=39
4.a
8f#
=40
2a
=41
[2a
=42
2a]}
==
!!!AGN: Shange, Huantiao. Xinminge
!! mehrstimmig ! Viele gr. Sekunden. Eine Kodierung nur der hoechsten
!!    Noten ist moeglich. Die nationale Minderheit dieser Provinz sind
!!    allerdings die Zhuang. -Solche Lieder werden nur von zwei guten
!!    Freunden (gleich welchen Geschlechts) gesungen. Auch Liebeslieder.
!!    Waehrend sie singen, stecken sie die Koepfe zusammen. Man weiss
!!    noch nicht, warum. Sollte ein gemischtes Paar heiraten, singen
!!    sie diese Lieder nicht mehr. Haeufige Kombination: 22 vs. 1-7.
!!    Die Phr.1,3,5,7 werden von der Unterstimme gesungen, waehrend die Ober-
!!    stimme schweigt. Zwischen Phr.4 und 5 einen Takt Pause weggelassen.
!!    Vereinzelt Verzierungen.
!!!ONB: ESAC (Essen Associative Code) Database: CHINA
!!!AMT: irregular
!!!AIN: vox
!!!EED: Helmut Schaffrath
!!!EEV: 1.0
*-
!!!ONB: Tied note syntax fixed by Craig Sapp, 2004/05/03/
